!!!!SEGMENT: pl-wtm--a-41-773-96_krupinski-wiktor--zwiedly-bzy-po-tylu-latach.krn
!!!cenid: 19xx:46
!!!COM: Krupiński, Wiktor
!!!COM-rismID: pe50047127
!!!CDT: 1879-1951
!!!CNT: Polish
!!!OTL: Zwiędły bzy/Po tylu latach
!!!PDT:
!!!AGN: Secular
!!!YEC: Copyright 2022 Narodowy Instytut Fryderyka Chopina (https://polishscores.org)
!!!YEM: License CC-BY-4.0 (https://creativecommons.org/licenses/by/4.0)
!!!SMS-siglum: PL-Wtm
!!!SMS-shelfmark: A-41.773/96
!!!SMS-variant:
!!!SMS-altvar:
!!!SMS-shelfwork: W
!!!NIFC-rismSourceID: 1001161266
!!!NIFC-rismChildID: 1001161266
!!!NIFC-islandoraID: pl-wtm:42371
!!!URL-pdf-islandora: https://repozytorium.nifc.pl/islandora/object/pl-wtm%3A42371/datastream/PDF/view
!!!URL-scan: https://polish.musicsources.pl/pl/lokalizacje/galeria/druki-muzyczne/22254/2 @EN{Scan on Polish Music Sources Website} @PL{Skany w portalu Dziedzictwo Muzyki Polskiej w otwartym dostępie}
!!!IIIF:
!!!ONB-nifc:
!!!OMD: Andante con moto.
!!!AIN: 1 piano 1 vox
!!!key:
**kern	**kern	**dynam	**kern	**text	**text
*part2	*part2	*part2	*part1	*part1	*part1
*staff3	*staff2	*	*staff1	*staff1	*staff1
*I"FORTEPIAN.	*	*	*I"ŚPIEW.	*	*
*Ipiano	*	*	*Ivox	*	*
*ICklav	*	*	*ICvox	*	*
*IGacmp	*	*	*IGsolo	*	*
*clefG2	*clefG2	*	*clefG2	*	*
*k[b-e-]	*k[b-e-]	*	*k[b-e-]	*	*
*g:	*g:	*	*g:	*	*
*M3/4	*M3/4	*	*M3/4	*	*
=1	=1	=1	=1	=1	=1
!	!LO:TUP:a	!	!	!	!
!	!LO:TX:t=P:problem=klamra łukowa	!	!	!	!
4g/ 4b-	12dd\L	mp	2.r	.	.
!	!LO:TX:b:t=espressivo	!	!	!	!
.	12gg\	.	.	.	.
.	12ff\J	.	.	.	.
!	!LO:TUP:a	!	!	!	!
!	!LO:TX:t=P:problem=klamra łukowa	!	!	!	!
4f/ 4g 4b-	12ee-\L	.	.	.	.
.	12ff\	.	.	.	.
.	12cc\J	.	.	.	.
!	!LO:TUP:a	!	!	!	!
!	!LO:TX:t=P:problem=klamra łukowa	!	!	!	!
4g/ 4b-	12dd\L	.	.	.	.
.	12ee-\	.	.	.	.
.	12b-\J	.	.	.	.
=2	=2	=2	=2	=2	=2
*	*^	*	*	*	*
4d/	8.dd/L	4e-\ 4a	>	2.r	.	.
.	16cc/Jk	.	.	.	.	.
*clefF4	*	*	*	*	*	*
4D/	8.b-/L	4g\	.	.	.	.
.	16dd/Jk	.	.	.	.	.
4DD/	8.a/L	4c\ 4f#X	.	.	.	.
.	16b-/Jk	.	.	.	.	.
*	*v	*v	*	*	*	*
=3	=3	=3	=3	=3	=3
4GG/ 4D	4B-/ 4d 4g	]	2.r	.	.
4DD/	2r	.	.	.	.
4GGG/	.	.	.	.	.
*clefG2	*	*	*	*	*
!!LO:LB:g=original
=4	=4	=4	=4	=4	=4
4g/ 4b-	4dd\	p	4dd\	Po	Dzień
4g/ 4b-	8dd\L	<	8dd\	ty-	w ca-
.	8dd\J	.	8dd\	-lu	-łun
.	(8qff/	.	.	.	.
4g/ 4a 4cc	8.ee-\L)	.	8.ee-\	la-	desz-
.	16cc\Jk	.	16cc\	-tach	-czu
=5	=5	=5	=5	=5	=5
4g/ 4b-	8dd\L	.	8dd\	wi-	spo-
.	8ee-\J	.	8ee-\	-dzę	-wił
4g/ 4a	4cc\	.	4cc\	cię	świat,
4r	8cc\L	.	8cc\	O-	Zczer-
.	8dd\J	[	8dd\	-czy	-niał
*clefF4	*	*	*	*	*
=6	=6	=6	=6	=6	=6
*	*^	*	*	*	*
4d\	4b-/	2g\	>	4b-\	twe	sad,
4D\	8b-/L	.	.	8b-\	Zno-	Zwiądł
.	8dd/J	.	.	8dd\	-wu	o-
4DD/	8.a/L	4c\ 4f#X	.	8.a/	ku-	-sta-
.	16b-/Jk	.	.	16b-/	-szą	-tni
*	*v	*v	*	*	*	*
=7	=7	=7	=7	=7	=7
2GG/ 2D 2G	2B-/ 2g	]	4g/	mnie;	kwiat...
.	.	.	4r	.	.
4r	4r	.	4r	.	.
*clefG2	*	*	*	*	*
!!LO:LB:g=original
=8	=8	=8	=8	=8	=8
4g/ 4b-	4dd\	mf <	4dd\	Znów	Wichr
4g/ 4b-	8dd\L	.	8dd\	pur-	su-
.	8dd\J	.	8dd\	-pu-	-che
.	(8qff/	.	.	.	.
4g/ 4a 4cc	8.ee-\L)	.	8.ee-\	-ro-	liś-
.	16cc\Jk	.	16cc\	-wych	-cie
=9	=9	=9	=9	=9	=9
2g/ 2b-	8.dd\L	.	8.dd\	ust	strą-
.	16gg\Jk	.	16gg\	twych	-ca
.	4dd\	.	4dd\	żar	z drzew
4r	8dd\L	.	8dd\	Wskrze-	Zim-
.	8een\J	[	8een\	-sza	-ny
*clefF4	*	*	*	*	*
=10	=10	=10	=10	=10	=10
*	*^	*	*	*	*
4D\ 4A	8.a\L 8.ff	4ryy	>	8.ff\	czar	wiew
.	16f\Jk 16dd	.	.	16dd\	U-	Za-
4GG\ 4G	8een/L	4en\ 4b-	.	8een\	-śpio-	-gła-
.	8cc#X/J	.	.	8cc#X\	-nych	-dy
4AA\ 4A	8f/L 8a	4ryy	.	8a/	da-	rzu-
.	8e/J 8g 8cc#	.	.	8cc#\	-wno	-ca
*	*v	*v	*	*	*	*
!!LO:PB:g=original
=11	=11	=11	=11	=11	=11
2D\ 2A	2f/ 2a 2dd	.	2dd\	mar.	siew.
4r	4r	]	4r	.	.
=12	=12	=12	=12	=12	=12
*^	*^	*	*	*	*
!	!	!LO:TX:b:t=piu leggiero	!	!	!	!	!
4FF:\ 4C: 4E-: 4A:	4ryy	8.ee-:/L	4e-:\ 4g:	.	8.ee-\	Czy	Kę-
.	.	16ee-/Jk	.	.	16ee-\	pa-	-dyż
2F/	4F\	8ee-/L	4ryy	.	8ee-\	-mię-	są
.	.	8a/	.	p	8a/	-tasz	po-
.	4FF\	8g/ 8b-	4ryy	.	8b-\	pier-	-ran-
.	.	8a/J 8cc	.	.	8cc\	-wsze	-ki,
=13	=13	=13	=13	=13	=13	=13	=13
4r	4BB-\	(8.b-/L	4d\	.	8.b-\	sam	peł-
.	.	16dd/Jk	.	.	16dd\	na	-ne
2F/	4F\	4a/)	2d\	.	4a/	sam?	lśnień
.	4FF\	8g/L	.	.	8g/	Bzów	Zło-
.	.	8b-/J	.	.	8b-/	li-	-tych
*v	*v	*	*	*	*	*	*
!!LO:LB:g=original
=14	=14	=14	=14	=14	=14	=14
4C/	8a/L	4e-\	<	8a/	-ljo-	zorz
.	8cc/J	.	.	8cc\	-wyc,	na
4e-\	8gM/L	4ryy	.	8g/	won-	nie-
.	8f/J	.	.	8f/	-nych	-ba
4c\	8.a/L	4ryy	.	8.a/	krył	jas-
.	16ee-/Jk	.	[	16ee-\	nas	-nem
*	*v	*v	*	*	*	*
=15	=15	=15	=15	=15	=15
!	!LO:TX:b:t=rit.	!	!	!	!
4BBB-/ 4BB-	2f/ 2dd	>	2dd\	krzew.	tle?
4F\ 4B- 4d	.	.	.	.	.
4B-\ 4d 4f	4r	]]	4r	.	.
=16	=16	=16	=16	=16	=16
*^	*^	*	*	*	*
!	!	!LO:TX:b:t=legg.	!	!	!	!	!
4r	4C\	8.ee-/L	4e-\ 4a	.	8.ee-\	Kwia-	Szczę-
.	.	16ee-/Jk	.	.	16ee-\	-tów	-ście
2F/	4F\	8ee-/L	2e-\ 2a	.	8ee-\	deszcz	gdzie,
.	.	8a/	.	.	8a/	pod	któ-
.	4FF\	8b-/	.	.	8b-\	sto-	-re-
.	.	8cc/J	.	.	8cc\	-py	-go
=17	=17	=17	=17	=17	=17	=17	=17
4r	4FF#X\	8.dd/L	2.c\ 2.d	.	8.dd\	pa-	ża-
.	.	16a/Jk	.	.	16a/	-da	-den
2F#/	4F#X\	4.b-/ 4.dd	.	.	4.dd\	nam,	cień
.	4FF#\	.	.	.	.	.	.
!	!	!LO:TX:b:t=poco	!	!	!	!	!
.	.	8a/ 8cc	.	.	8cc\	Sło-	Nie
*v	*v	*	*	*	*	*	*
!!LO:LB:g=original
=18	=18	=18	=18	=18	=18	=18
!	!LO:TX:b:t=rit.	!	!	!	!	!
2GG\ 2En 2G	8b-/L	2B-\ 2d	.	8b-/	-wi-	zmą-
.	8a/	.	.	8a/	-ka	-cił?
.	8g/	.	.	8g/	zda-	Wio-
.	8en/J	.	.	8en/	-la	-sna
4AA\ 4G	8.b-/L	4c#X\	.	8.b-/	pły-	ży-
.	16a/Jk	.	.	16a/	-nie	-cia
*	*v	*v	*	*	*	*
=19	=19	=19	=19	=19	=19
*^	*	*	*	*	*
!	!	!	!LO:DY:t=pf	!	!	!
8D/L	4DD\ 4D	4c/ 4f#X 4a 4dd	f <	4dd\	śpiew.	gdzie?
8E-X/	.	.	.	.	.	.
8D/	2ryy	4r	.	4r	.	.
8C/	.	.	.	.	.	.
!	!	!LO:TX:b:t=rit.	!	!	!	!
8BB-/	.	8.d/L 8.f# 8.b- 8.dd	.	8.dd\	Zwię-	.
8AA/J	.	.	.	.	.	.
.	.	16d/Jk 16f# 16cc 16dd	[	16dd\	-dły	.
=20	=20	=20	=20	=20	=20	=20
*	*	*^	*	*	*	*
!	!	!	!	!LO:DY:rj	!	!	!
2.F/ 2.G 2.Bn 2.e-	2.GGG\ 2.GG	4.gg/	2.f\ 2.g 2.bn 2.ee-	ff	4.gg\	bzy,	.
!	!	!LO:TX:b:t=marcato	!	!	!	!	!
.	.	8ff/	.	.	8ff\	mło-	.
.	.	8ee-/L	.	.	8ee-\	-dzień-	.
.	.	8dd/J	.	.	8dd\	-cze	.
*v	*v	*	*	*	*	*	*
!!LO:LB:g=original
=21	=21	=21	=21	=21	=21	=21
2.CC:/ 2.C: 2.A:	4.ee-/	2.e-\ 2.g	>	4.ee-\	sny	.
.	8ee-/	.	.	8ee-\	Roz-	.
.	8dd/L	.	.	8dd\	-wia-	.
.	8cc/J	.	]	8cc\	-ły	.
*	*v	*v	*	*	*	*
=22	=22	=22	=22	=22	=22
!	!	!LO:HP:t=dim.	!	!	!
4DD/ 4D	4d/ 4g 4b- 4dd	>	4dd\	się	.
4r	4r	.	4r	.	.
4r	4r	.	4r	.	.
=23	=23	=23	=23	=23	=23
4DD/ 4D	4c/ 4f#X 4a 4dd	p	4dd\	jak	.
4r	4r	.	4r	.	.
4r	4r	.	4r	.	.
=24	=24	=24	=24	=24	=24
!	!	!LO:DY:rj	!	!	!
4GG/ 4D 4G	4B-/ 4d 4g	pp	4g/	mgły.	.
4r	4r	.	4r	.	.
4r	4r	.	4r	.	.
==	==	==	==	==	==
*-	*-	*-	*-	*-	*-
!!!system-decoration: s1{(s2,s3)}
!!!RDF**kern: < = below
!!!RDF**kern: > = above
!!!ENC: Berenika Jozajtis
!!!END: 2023-08-27
!!!ENC: Marta Chmielewska
!!!END: 2023-09-26
